X: 1
T:The Sailor's Ransom -- Reel
M:2/4
L:1/16
R:reel
B:Ryan's Mammoth Collection
N:383
Z:Contributed by Ray Davies,  ray:davies99.freeserve.co.uk
K:A
ved|\
c"4"edc BdcB | AcBA .G2.E2 | AGBA dcBA | Bfe^d .e2(e=d) |
c"4"edc BdcB | AcBA GEFG | AcBA GBAG | A2c2A2   :|
|:u((3efg)|\
agba gfed | cfed .c2.A2 | GABc dcBA | Be^df .e2(fg) |
agba gfed | cfed .c2.A2 | e^dfe =dBGB | A2c2A2  :|
